X: 40
M:2/4
L:1/16
K:Bb
vFE|DFBc d2vcd|edcB G2vFE"^SEGUE"|DFBc dBAB|gfdB c2FE|
vBc|dBAB GBFB|DFBc dBAB|gBfB edcB|GccB ABce|
dBAB GBFB|DFBc dBAB|gBfB edcB|AFGA B2:|


